X:1
T:We Come Today
T:We Come Today
T:Ira Bishop Wilson
T:Edith J. Sanford Tillotson, 1903
T:Public Domain Courtesy of the Cyber Hymnal™
T:Public Domain Courtesy of the Cyber Hymnal™
C:Ira Bishop Wilson
Z:Public Domain
Z:Courtesy of the Cyber Hymnal™
%%score ( 1 2 ) ( 3 4 )
L:1/8
Q:1/4=105
M:4/4
K:Ab
V:1 treble 
V:2 treble 
V:3 bass 
V:4 bass 
V:1
 [Ee]>[Ee] z2 x12 | e6 c2 d2 || E2 x4 | [CEAc]2 [CEAc]2 [CEAc]2 (BA) | [CE]2 E4 (FG) | %5
w: ~ ~|* ~ ~|~|~ ~ 1.~While Christ- *|mas lights are *|
w: (Intro \-|* first verse|only)|~ ~ 2.~While Christ- *|mas bells are *|
w: ~ ~|* ~ ~|~|~ ~ 3.~While Christ- *|mas songs are *|
 [CEA]2 [CEG]2 [CEB]2 [EA]2 | A6 [EF]2 | [DFBd]2 [DFBd]2 [DFBd]2 (cB) | [DF]2 F4 [DA]2 | %9
w: shin- ing, and Christ-|mas car-|ols ring, While hol- *|ly wreaths are|
w: ring- ing, and Christ-|mas greet-|ings sound, While hap- *|py lips are|
w: swell- ing, and Christ-|mas gar-|lands glow, While lov- *|ing words are|
 [DG]2 [DF]2 [DE]2 [EBd]2 | [EAc]6 E2 | [CEAc]2 [CEAc]2 [CEAc]2 (BA) | [CE]2 E4 C2 | %13
w: twin- ing, and hap-|py child-|ren sing, We ga- *|ther with re-|
w: sing- ing, as hearts|with plea-|sure bound, We come *|with songs of|
w: tell- ing, the tale|that well|we know, We meet *|a- gain to|
 (F=E) (FG) A2 [FAB]2 | [=EGc]6 [EGc]2 | [EFd]2 [EF=A]2 (cB) (AB) | [DEc]2 [DEG]2 (BA) (GF) | %17
w: joic- * ing, * we march|up- on|our way, With * mu- *|sic sweet, we * glad- *|
w: glad- * ness, * that e-|cho far|a- way, Our * voic- *|es raise a * hymn *|
w: wel- * come * the sea-|son glad|and gay, The * bless- *|èd morn when * Christ *|
 [CE]2 [EAc]2 [=DAc]2 [_DEB]2 | [CEA]4- [CEA] x3 ||"^Refrain" [CE][CF][CA] x2 | G2 d2 d F2 A | %21
w: ly greet the mer-|ry *|Christ- mas Day.||
w: of praise, for mer-|ry *|Christ- mas Day.|While Christ- mas chimes are|
w: was born, the mer-|ry *|Christ- mas Day.||
 [DEG]2 [DEG]2 [DEG][DE][DF][DG] | F2 c2 c E2 =E | [CF]2 [CF]2 [CF]EFG | [CEB]2 [CEA]3 ABc | %25
w: ||||
w: we come to- day, And Christ-|mas songs we’re sing- ing|long the way, Our ban- ners|rais- ing, with hymns of|
w: ||||
 [EAe]2 [DAd]4 [=DAB]2 | [EAc]2 [EAe]2 [=DFc]2 [_DEB]2 | [A,CA]6 x2 |] x6 |] %29
w: ||||
w: prais- ing, We|come this Christ- mas|Day.||
w: ||||
V:2
 x2 ([Ee]8- G2) A2 =A2 | [E-B]2 E4 x4 || x6 | x6 [CE]2 | x2 (C2 C2) C2 | x8 | (D2 D2 E2) x2 | %7
 x6 [DF]2 | x2 (D2 D2) x2 | x8 | x8 | x6 [CE]2 | x2 (C2 C2) C2 | x8 | x8 | x4 [DF]2 [DF]2 | %16
 x4 C2 =B,2 | x8 | x8 || x5 | [DE]8- | x8 | C8- | x8 | x8 | x8 | x8 | x8 |] x6 |] %29
V:3
 z2 x14 | z2 [E,,E,]2 [F,,F,]2 [^F,,^F,]2 x2 || [G,,G,]2 [A,,A,]2 [B,,B,]2 | E,2 x6 | %4
 [A,,A,]2 [E,,E,]2 [A,,A,]2 [E,,E,]2 | [A,,A,]2 ([E,,E,]2 [A,,A,]2) [E,,E,]2 | %6
 [A,,A,]2 [E,,E,]2 [A,,A,]2 [C,A,]2 | ([D,A,]2 [D,A,]2 [C,=A,]2) [F,A,]2 | %8
 [B,,B,]2 [F,,F,]2 [B,,B,]2 [F,,F,]2 | [B,,B,]2 [F,,F,]2 [B,,B,]2 [F,,F,]2 | %10
 [B,,B,]2 [E,,E,]2 [G,,G,]2 [E,,E,]2 | ([A,,A,]2 [E,,E,]2 [A,,,A,,]2) E,2 | %12
 [A,,A,]2 [E,,E,]2 [A,,A,]2 [E,,E,]2 | [A,,A,]2 [E,,E,]2 [A,,A,]2 C,2 | F,=E,F,G, A,2 [D,,D,]2 | %15
 ([C,,C,]2 [=D,,=D,]2 [=E,,=E,]2) [C,,C,]2 | [=A,,=A,]2 [F,,F,]2 [B,,B,]2 [F,,F,]2 | %17
 [G,,G,]2 [E,,E,]2 [F,,F,]2 [=D,,=D,]2 | [E,,E,]2 [E,,E,]2 [F,,F,]2 [G,,G,]2 || %19
 ([A,,A,]2 [E,,E,]2 [A,,,A,,]) | z3 x5 | B,,2 E,2 E,,2 E,2 | B,,2 E,2 E,,2 E,2 | %23
 A,,2 E,2 E,,2 E,2 | A,,2 E,2 G, z3 | [_G,,_G,]2 [G,,G,]3 z3 | [F,,F,]2 [F,,F,]4 [_F,,_F,]2 | %27
 [E,,E,]2 [C,A,]2 [B,,A,]2 [E,G,]2 |] ([A,,A,]2 [E,,E,]2 [A,,,A,,]2) |] %29
V:4
 x16 | x10 || x6 | E,2 x6 | x8 | x8 | x8 | x8 | x8 | x8 | x8 | x6 E,2 | x8 | x6 C,2 | x8 | x8 | %16
 x8 | x8 | x8 || x5 | x8 | x8 | x8 | x8 | x8 | x8 | x8 | x8 |] x6 |] %29

